flaticon/transport/taxi.svg

<svg xmlns="http://www.w3.org/2000/svg" width="32" height="32" viewBox="0 0 24 24">
    <path d="M4.800781 18C4.359375 18 4 18.359375 4 18.800781 4 19.238281 4.359375 19.601562 4.800781 19.601562 5.238281 19.601562 5.601562 19.238281 5.601562 18.800781 5.601562 18.359375 5.238281 18 4.800781 18zM19.199219 18C18.761719 18 18.398438 18.359375 18.398438 18.800781 18.398438 19.238281 18.761719 19.601562 19.199219 19.601562 19.640625 19.601562 20 19.238281 20 18.800781 20 18.359375 19.640625 18 19.199219 18zM19.199219 18"/>
    <path d="M 23 13.199219 L 21.359375 13.199219 C 20.199219 13.199219 19.078125 12.558594 18.441406 11.558594 L 17.039062 9.320312 C 16.558594 8.519531 15.640625 8 14.679688 8 L 14.398438 8 L 14.398438 7.199219 L 16 7.199219 C 16.238281 7.199219 16.398438 7.039062 16.398438 6.800781 L 16.398438 2.800781 C 16.398438 2.558594 16.238281 2.398438 16 2.398438 L 4.398438 2.398438 C 4.160156 2.398438 4 2.558594 4 2.800781 L 4 6.800781 C 4 7.039062 4.160156 7.199219 4.398438 7.199219 L 6 7.199219 L 6 8.050781 C 5.25 8.199219 4.585938 8.667969 4.160156 9.320312 L 2.160156 12.558594 C 1.921875 12.960938 1.480469 13.199219 1 13.199219 C 0.71875 13.199219 0.480469 13.320312 0.28125 13.480469 C 0.121094 13.679688 0 13.921875 0 14.199219 L 0 17.800781 C 0 18.558594 0.640625 19.199219 1.398438 19.199219 L 2.027344 19.199219 C 2.21875 20.566406 3.375 21.601562 4.800781 21.601562 C 6.222656 21.601562 7.378906 20.566406 7.570312 19.199219 L 16.429688 19.199219 C 16.621094 20.566406 17.777344 21.601562 19.199219 21.601562 C 20.625 21.601562 21.78125 20.566406 21.972656 19.199219 L 22.398438 19.199219 C 23.28125 19.199219 24 18.480469 24 17.601562 L 24 14.199219 C 24 13.640625 23.558594 13.199219 23 13.199219 Z M 6.398438 12 L 6.398438 10.398438 L 11.601562 10.398438 L 11.601562 12 Z M 12.398438 10.398438 L 16.695312 10.398438 L 17.695312 12 L 12.398438 12 Z M 4.800781 3.199219 L 15.601562 3.199219 L 15.601562 6.398438 L 4.800781 6.398438 Z M 13.601562 7.199219 L 13.601562 8 L 6.800781 8 L 6.800781 7.199219 Z M 4.800781 20.800781 C 3.679688 20.800781 2.800781 19.921875 2.800781 18.800781 C 2.800781 17.679688 3.679688 16.800781 4.800781 16.800781 C 5.921875 16.800781 6.800781 17.679688 6.800781 18.800781 C 6.800781 19.921875 5.921875 20.800781 4.800781 20.800781 Z M 19.199219 20.800781 C 18.078125 20.800781 17.199219 19.921875 17.199219 18.800781 C 17.199219 17.679688 18.078125 16.800781 19.199219 16.800781 C 20.320312 16.800781 21.199219 17.679688 21.199219 18.800781 C 21.199219 19.921875 20.320312 20.800781 19.199219 20.800781 Z M 22.359375 18.398438 L 21.972656 18.398438 C 21.78125 17.035156 20.625 16 19.199219 16 C 19.195312 16 19.1875 16 19.179688 16 C 19.171875 16 19.167969 16 19.160156 16 C 17.761719 16 16.601562 17.039062 16.398438 18.398438 L 7.570312 18.398438 C 7.394531 17.117188 6.363281 16.128906 5.0625 16.011719 C 5.054688 16.011719 5.042969 16.011719 5.035156 16.011719 C 5 16.007812 4.96875 16.003906 4.933594 16.003906 C 4.890625 16 4.84375 16 4.800781 16 C 4.753906 16 4.710938 16 4.664062 16.003906 C 4.632812 16.003906 4.597656 16.007812 4.566406 16.011719 C 4.554688 16.011719 4.546875 16.011719 4.539062 16.011719 C 3.234375 16.128906 2.207031 17.117188 2.027344 18.398438 L 1.398438 18.398438 C 1.078125 18.398438 0.800781 18.121094 0.800781 17.800781 L 0.800781 15.601562 L 2 15.601562 C 2.238281 15.601562 2.398438 15.441406 2.398438 15.199219 C 2.398438 14.960938 2.238281 14.800781 2 14.800781 L 0.800781 14.800781 L 0.800781 14.199219 C 0.800781 14.160156 0.800781 14.121094 0.878906 14.078125 C 0.921875 14.039062 0.960938 14 1.039062 14 C 1.761719 14 2.480469 13.601562 2.839844 13 L 4.839844 9.761719 C 5.199219 9.160156 5.839844 8.800781 6.519531 8.800781 L 14.679688 8.800781 C 15.300781 8.800781 15.886719 9.101562 16.226562 9.640625 L 6.320312 9.640625 C 5.921875 9.640625 5.601562 9.960938 5.601562 10.359375 L 5.601562 12.078125 C 5.601562 12.480469 5.921875 12.800781 6.320312 12.800781 L 18.316406 12.800781 C 19.097656 13.582031 20.171875 14.039062 21.320312 14.039062 L 22.960938 14.039062 C 23.078125 14.039062 23.160156 14.121094 23.160156 14.238281 L 23.160156 15.199219 L 22 15.199219 C 21.761719 15.199219 21.601562 15.359375 21.601562 15.601562 C 21.601562 15.839844 21.761719 16 22 16 L 23.160156 16 L 23.160156 17.601562 C 23.160156 18.039062 22.800781 18.398438 22.359375 18.398438 Z M 22.359375 18.398438"/>
    <path d="M14 14L12 14C11.761719 14 11.601562 14.160156 11.601562 14.398438 11.601562 14.640625 11.761719 14.800781 12 14.800781L13.601562 14.800781 13.601562 15.199219C13.601562 15.441406 13.761719 15.601562 14 15.601562 14.238281 15.601562 14.398438 15.441406 14.398438 15.199219L14.398438 14.398438C14.398438 14.160156 14.238281 14 14 14zM7.199219 5.601562C7.441406 5.601562 7.601562 5.441406 7.601562 5.199219L7.601562 4.398438C7.601562 4.160156 7.441406 4 7.199219 4 6.960938 4 6.800781 4.160156 6.800781 4.398438L6.800781 5.199219C6.800781 5.441406 6.960938 5.601562 7.199219 5.601562zM9.199219 5.601562C9.441406 5.601562 9.601562 5.441406 9.601562 5.199219L9.601562 4.398438C9.601562 4.160156 9.441406 4 9.199219 4 8.960938 4 8.800781 4.160156 8.800781 4.398438L8.800781 5.199219C8.800781 5.441406 8.960938 5.601562 9.199219 5.601562zM11.199219 5.601562C11.441406 5.601562 11.601562 5.441406 11.601562 5.199219L11.601562 4.398438C11.601562 4.160156 11.441406 4 11.199219 4 10.960938 4 10.800781 4.160156 10.800781 4.398438L10.800781 5.199219C10.800781 5.441406 10.960938 5.601562 11.199219 5.601562zM13.199219 5.601562C13.441406 5.601562 13.601562 5.441406 13.601562 5.199219L13.601562 4.398438C13.601562 4.160156 13.441406 4 13.199219 4 12.960938 4 12.800781 4.160156 12.800781 4.398438L12.800781 5.199219C12.800781 5.441406 12.960938 5.601562 13.199219 5.601562zM13.199219 5.601562"/>
</svg>

<svg xmlns="http://www.w3.org/2000/svg" width="32" height="32" viewBox="0 0 24 24">
    <path d="M4.8 18c-.44 0-.8.36-.8.8 0 .438.36.802.8.802.438 0 .802-.364.802-.801 0-.442-.364-.801-.801-.801zm0 0M19.2 18c-.438 0-.802.36-.802.8 0 .438.364.802.801.802.442 0 .801-.364.801-.801 0-.442-.36-.801-.8-.801zm0 0"/>
    <path d="M23 13.2h-1.64c-1.16 0-2.282-.641-2.919-1.641L17.04 9.32A2.785 2.785 0 0 0 14.68 8h-.28v-.8H16c.238 0 .398-.16.398-.4v-4c0-.241-.16-.402-.398-.402H4.398c-.238 0-.398.16-.398.403v4c0 .238.16.398.398.398H6v.852a2.893 2.893 0 0 0-1.84 1.27l-2 3.238c-.238.402-.68.64-1.16.64-.281 0-.52.121-.719.281-.16.2-.281.442-.281.72v3.6c0 .759.64 1.4 1.398 1.4h.63A2.782 2.782 0 0 0 4.8 21.601a2.781 2.781 0 0 0 2.77-2.403h8.859a2.781 2.781 0 0 0 2.77 2.403 2.782 2.782 0 0 0 2.773-2.403h.425c.883 0 1.602-.719 1.602-1.597v-3.403c0-.558-.441-1-1-1zM6.398 12v-1.602h5.204V12zm6-1.602h4.297l1 1.602h-5.297zM4.801 3.2h10.8v3.2h-10.8zm8.8 4V8h-6.8v-.8zm-8.8 13.602c-1.121 0-2-.88-2-2 0-1.121.879-2 2-2 1.12 0 2 .879 2 2 0 1.12-.88 2-2 2zm14.398 0c-1.12 0-2-.88-2-2 0-1.121.88-2 2-2 1.121 0 2 .879 2 2 0 1.12-.879 2-2 2zm3.16-2.403h-.386A2.782 2.782 0 0 0 19.199 16h-.039c-1.398 0-2.558 1.04-2.762 2.398H7.57a2.772 2.772 0 0 0-2.508-2.386h-.027c-.035-.004-.066-.008-.101-.008C4.89 16 4.844 16 4.8 16c-.047 0-.09 0-.137.004a.822.822 0 0 0-.098.008H4.54a2.776 2.776 0 0 0-2.512 2.386h-.629a.61.61 0 0 1-.597-.597v-2.2H2c.238 0 .398-.16.398-.402 0-.238-.16-.398-.398-.398H.8v-.602c0-.039 0-.078.079-.12.043-.04.082-.079.16-.079.723 0 1.441-.398 1.8-1l2-3.238c.36-.602 1-.961 1.68-.961h8.16c.622 0 1.208.3 1.548.84H6.32a.717.717 0 0 0-.718.718v1.72c0 .401.32.722.718.722h11.996a4.243 4.243 0 0 0 3.004 1.238h1.64c.118 0 .2.082.2.2v.96H22c-.238 0-.398.16-.398.403 0 .238.16.398.398.398h1.16v1.602c0 .437-.36.796-.8.796zm0 0"/>
    <path d="M14 14h-2c-.238 0-.398.16-.398.398 0 .243.16.403.398.403h1.602v.398c0 .242.16.403.398.403.238 0 .398-.16.398-.403v-.8c0-.239-.16-.399-.398-.399zm0 0M7.2 5.602c.241 0 .402-.16.402-.403v-.8c0-.239-.16-.399-.403-.399-.238 0-.398.16-.398.398V5.2c0 .242.16.403.398.403zm0 0M9.2 5.602c.241 0 .402-.16.402-.403v-.8c0-.239-.16-.399-.403-.399-.238 0-.398.16-.398.398V5.2c0 .242.16.403.398.403zm0 0M11.2 5.602c.241 0 .402-.16.402-.403v-.8c0-.239-.16-.399-.403-.399-.238 0-.398.16-.398.398V5.2c0 .242.16.403.398.403zm0 0M13.2 5.602c.241 0 .402-.16.402-.403v-.8c0-.239-.16-.399-.403-.399-.238 0-.398.16-.398.398V5.2c0 .242.16.403.398.403zm0 0"/>
</svg>
